src/images/logos/linkedin-logo.svg

<svg width="20px" height="20px" viewBox="0 0 20 20">
    <path d="M15.8333333,0 L4.16666667,0 C1.86583333,0 0,1.86583333 0,4.16666667 L0,15.8333333 C0,18.1341667 1.86583333,20 4.16666667,20 L15.8333333,20 C18.135,20 20,18.1341667 20,15.8333333 L20,4.16666667 C20,1.86583333 18.135,0 15.8333333,0 Z M6.66666667,15.8333333 L4.16666667,15.8333333 L4.16666667,6.66666667 L6.66666667,6.66666667 L6.66666667,15.8333333 Z M5.41666667,5.61 C4.61166667,5.61 3.95833333,4.95166667 3.95833333,4.14 C3.95833333,3.32833333 4.61166667,2.67 5.41666667,2.67 C6.22166667,2.67 6.875,3.32833333 6.875,4.14 C6.875,4.95166667 6.2225,5.61 5.41666667,5.61 Z M16.6666667,15.8333333 L14.1666667,15.8333333 L14.1666667,11.1633333 C14.1666667,8.35666667 10.8333333,8.56916667 10.8333333,11.1633333 L10.8333333,15.8333333 L8.33333333,15.8333333 L8.33333333,6.66666667 L10.8333333,6.66666667 L10.8333333,8.1375 C11.9966667,5.9825 16.6666667,5.82333333 16.6666667,10.2008333 L16.6666667,15.8333333 Z" fill="#0B78B7" fill-rule="nonzero" stroke-width="0"></path>
</svg>

<svg viewBox="0 0 20 20">
  <path
    d="M15.833 0H4.167A4.167 4.167 0 000 4.167v11.666C0 18.134 1.866 20 4.167 20h11.666A4.167 4.167 0 0020 15.833V4.167C20 1.866 18.135 0 15.833 0zM6.667 15.833h-2.5V6.667h2.5v9.166zM5.417 5.61a1.465 1.465 0 01-1.459-1.47c0-.812.654-1.47 1.459-1.47s1.458.658 1.458 1.47c0 .812-.652 1.47-1.458 1.47zm11.25 10.223h-2.5v-4.67c0-2.806-3.334-2.594-3.334 0v4.67h-2.5V6.667h2.5v1.47c1.164-2.155 5.834-2.314 5.834 2.064v5.632z"
    fill="#0B78B7" />
</svg>
